icons/csv.svg

<svg xmlns="http://www.w3.org/2000/svg" viewBox="0 0 32 32">
	<path fill="#8CC148" d="M 7 7.0996094 L 7 24.900391 L 25 24.900391 L 25 7.0996094 L 7 7.0996094 z M 9.9003906 10.800781 L 15 10.800781 L 15 12.099609 L 9.9003906 12.099609 L 9.9003906 10.800781 z M 16.900391 10.800781 L 22 10.800781 L 22 12.099609 L 16.900391 12.099609 L 16.900391 10.800781 z M 9.9003906 13.800781 L 15 13.800781 L 15 15.099609 L 9.9003906 15.099609 L 9.9003906 13.800781 z M 16.900391 13.800781 L 22 13.800781 L 22 15.099609 L 16.900391 15.099609 L 16.900391 13.800781 z M 9.9003906 16.800781 L 15 16.800781 L 15 18.099609 L 9.9003906 18.099609 L 9.9003906 16.800781 z M 16.900391 16.800781 L 22 16.800781 L 22 18.099609 L 16.900391 18.099609 L 16.900391 16.800781 z M 9.9003906 19.800781 L 15 19.800781 L 15 21.099609 L 9.9003906 21.099609 L 9.9003906 19.800781 z M 16.900391 19.800781 L 22 19.800781 L 22 21.099609 L 16.900391 21.099609 L 16.900391 19.800781 z " />
</svg>

<svg xmlns="http://www.w3.org/2000/svg" viewBox="0 0 32 32"><path fill="#8CC148" d="M7 7.1v17.8h18V7.1H7zm2.9 3.7H15v1.3H9.9v-1.3zm7 0H22v1.3h-5.1v-1.3zm-7 3H15v1.3H9.9v-1.3zm7 0H22v1.3h-5.1v-1.3zm-7 3H15v1.3H9.9v-1.3zm7 0H22v1.3h-5.1v-1.3zm-7 3H15v1.3H9.9v-1.3zm7 0H22v1.3h-5.1v-1.3z"/></svg>
